assets/icon/discord.svg

<svg xmlns="http://www.w3.org/2000/svg" version="1.1" xmlns:xlink="http://www.w3.org/1999/xlink" xmlns:svgjs="http://svgjs.com/svgjs" width="512" height="512" x="0" y="0" viewBox="0 0 512 512" style="enable-background:new 0 0 512 512" xml:space="preserve" class=""><g><path d="M227.9 270.06c0 20.56-14.73 37.29-33.25 37.29-18.23 0-33.25-16.73-33.25-37.29 0-20.55 14.73-37.29 33.25-37.29 18.66 0 33.54 16.89 33.25 37.29zM350.83 270.06c0 20.56-14.58 37.29-33.25 37.29-18.23 0-33.25-16.73-33.25-37.29 0-20.55 14.73-37.29 33.25-37.29 18.67 0 33.54 16.89 33.25 37.29z" fill="#5865f2" data-original="#000000" class=""></path><path d="M256 0C114.62 0 0 114.62 0 256s114.62 256 256 256 256-114.62 256-256S397.38 0 256 0zm182.91 350.25c-31.64 23.24-62.3 37.35-92.53 46.7-.48.15-1-.03-1.3-.44-6.98-9.72-13.32-19.97-18.88-30.73-.32-.63-.03-1.39.63-1.64 10.07-3.81 19.65-8.36 28.87-13.74.73-.43.77-1.47.1-1.97-1.95-1.45-3.89-2.98-5.74-4.51a1.14 1.14 0 0 0-1.21-.15c-59.84 27.65-125.39 27.65-185.94 0-.39-.17-.86-.11-1.19.17-1.85 1.52-3.79 3.04-5.73 4.49-.67.5-.62 1.54.11 1.97 9.22 5.28 18.8 9.93 28.86 13.75.66.25.97 1 .64 1.63-5.43 10.78-11.78 21.02-18.89 30.74-.31.4-.82.58-1.3.43-30.09-9.35-60.74-23.46-92.39-46.7-.26-.21-.45-.53-.48-.87-6.44-69.03 6.7-138.92 54.66-210.58.12-.19.29-.34.5-.42a303.91 303.91 0 0 1 75.3-23.36c.48-.07.96.15 1.21.57 3.27 5.79 7 13.2 9.53 19.26 27.85-4.25 56.14-4.25 84.58 0 2.52-5.93 6.12-13.47 9.37-19.26.25-.44.73-.66 1.21-.57a304.855 304.855 0 0 1 75.31 23.36c.21.08.38.23.48.44 41.78 61.45 62.42 130.77 54.7 210.58-.03.34-.2.64-.48.85z" fill="#5865f2" data-original="#000000" class=""></path></g></svg>

<svg width="512" height="512" viewBox="0 0 512 512" fill="none" xmlns="http://www.w3.org/2000/svg">
<g clip-path="url(#clip0_1_2)">
<path d="M227.9 270.06C227.9 290.62 213.17 307.35 194.65 307.35C176.42 307.35 161.4 290.62 161.4 270.06C161.4 249.51 176.13 232.77 194.65 232.77C213.31 232.77 228.19 249.66 227.9 270.06ZM350.83 270.06C350.83 290.62 336.25 307.35 317.58 307.35C299.35 307.35 284.33 290.62 284.33 270.06C284.33 249.51 299.06 232.77 317.58 232.77C336.25 232.77 351.12 249.66 350.83 270.06Z" fill="black"/>
<path d="M256 0C114.62 0 0 114.62 0 256C0 397.38 114.62 512 256 512C397.38 512 512 397.38 512 256C512 114.62 397.38 0 256 0ZM438.91 350.25C407.27 373.49 376.61 387.6 346.38 396.95C345.9 397.1 345.38 396.92 345.08 396.51C338.1 386.79 331.76 376.54 326.2 365.78C325.88 365.15 326.17 364.39 326.83 364.14C336.9 360.33 346.48 355.78 355.7 350.4C356.43 349.97 356.47 348.93 355.8 348.43C353.85 346.98 351.91 345.45 350.06 343.92C349.893 343.783 349.691 343.696 349.477 343.67C349.263 343.643 349.045 343.678 348.85 343.77C289.01 371.42 223.46 371.42 162.91 343.77C162.52 343.6 162.05 343.66 161.72 343.94C159.87 345.46 157.93 346.98 155.99 348.43C155.32 348.93 155.37 349.97 156.1 350.4C165.32 355.68 174.9 360.33 184.96 364.15C185.62 364.4 185.93 365.15 185.6 365.78C180.17 376.56 173.82 386.8 166.71 396.52C166.4 396.92 165.89 397.1 165.41 396.95C135.32 387.6 104.67 373.49 73.02 350.25C72.76 350.04 72.57 349.72 72.54 349.38C66.1 280.35 79.24 210.46 127.2 138.8C127.32 138.61 127.49 138.46 127.7 138.38C151.679 127.357 176.992 119.504 203 115.02C203.48 114.95 203.96 115.17 204.21 115.59C207.48 121.38 211.21 128.79 213.74 134.85C241.59 130.6 269.88 130.6 298.32 134.85C300.84 128.92 304.44 121.38 307.69 115.59C307.94 115.15 308.42 114.93 308.9 115.02C334.909 119.514 360.224 127.366 384.21 138.38C384.42 138.46 384.59 138.61 384.69 138.82C426.47 200.27 447.11 269.59 439.39 349.4C439.36 349.74 439.19 350.04 438.91 350.25Z" fill="black"/>
</g>
<defs>
<clipPath id="clip0_1_2">
<rect width="512" height="512" fill="white"/>
</clipPath>
</defs>
</svg>
